X: 87
T: Pollonesse #87(3)
M: 3/4
L: 1/16
K: D
Q:120
DCDE FEDE F2D2| FEFG AGFG A2F2|A2FA d2dA f2fd|fdec d4D4:|
|:gfed cdec A2A2|gfed cdec A2A2|dcde fdef gefg|agfe d4D4:|
N: Jämför nr. 4

